public/images/intellij.svg

<svg fill="none" height="800" viewBox="0 0 32 32" width="800" xmlns="http://www.w3.org/2000/svg" xmlns:xlink="http://www.w3.org/1999/xlink"><linearGradient id="a" gradientUnits="userSpaceOnUse" x1=".360663" x2="15.2301" y1="18.3262" y2="18.3262"><stop offset=".258" stop-color="#f97a12"/><stop offset=".459" stop-color="#b07b58"/><stop offset=".724" stop-color="#577bae"/><stop offset=".91" stop-color="#1e7ce5"/><stop offset="1" stop-color="#087cfa"/></linearGradient><linearGradient id="b" gradientUnits="userSpaceOnUse" x1="11.7795" x2="36.3084" y1="11.3738" y2="24.9464"><stop offset="0" stop-color="#f97a12"/><stop offset=".072" stop-color="#cb7a3e"/><stop offset=".154" stop-color="#9e7b6a"/><stop offset=".242" stop-color="#757b91"/><stop offset=".334" stop-color="#537bb1"/><stop offset=".432" stop-color="#387ccc"/><stop offset=".538" stop-color="#237ce0"/><stop offset=".655" stop-color="#147cef"/><stop offset=".792" stop-color="#0b7cf7"/><stop offset="1" stop-color="#087cfa"/></linearGradient><linearGradient id="c" gradientUnits="userSpaceOnUse" x1="28.9046" x2="22.0758" y1="19.6184" y2="-.785756"><stop offset="0" stop-color="#fe315d"/><stop offset=".078" stop-color="#cb417e"/><stop offset=".16" stop-color="#9e4e9b"/><stop offset=".247" stop-color="#755bb4"/><stop offset=".339" stop-color="#5365ca"/><stop offset=".436" stop-color="#386ddb"/><stop offset=".541" stop-color="#2374e9"/><stop offset=".658" stop-color="#1478f3"/><stop offset=".794" stop-color="#0b7bf8"/><stop offset="1" stop-color="#087cfa"/></linearGradient><linearGradient id="d" gradientUnits="userSpaceOnUse" x1="4.90057" x2="25.3824" y1="7.53051" y2="41.408"><stop offset="0" stop-color="#fe315d"/><stop offset=".04" stop-color="#f63462"/><stop offset=".104" stop-color="#df3a71"/><stop offset=".167" stop-color="#c24383"/><stop offset=".291" stop-color="#ad4a91"/><stop offset=".55" stop-color="#755bb4"/><stop offset=".917" stop-color="#1d76ed"/><stop offset="1" stop-color="#087cfa"/></linearGradient><clipPath id="e"><path d="m0 0h32v32h-32z"/></clipPath><g clip-path="url(#e)"><path d="m8.09095 24.9598-7.725716-6.1257 3.839996-7.1315 11.01717 4.2972z" fill="url(#a)"/><path d="m32.0003 8.54864-.5943 18.51426-12.2972 4.9372-7.4057-4.7543 10.8343-11.2457-4.7543-10.37717 4.2515-5.12z" fill="url(#b)"/><path d="m32.0003 8.54864-9.7371 11.51996-4.48-14.44567 4.2514-5.12z" fill="url(#c)"/><path d="m15.4057 26.56-12.8457 4.6629 2.05714-7.2229 2.69715-8.8686-7.31429-2.4685 4.61714-12.6629 10.05716 1.23429 9.8743 11.29141z" fill="url(#d)"/><path d="m6.2627 6.17139h19.7486v19.74861h-19.7486z" fill="#000"/><g fill="#fff"><path d="m8.0918 22.2173h7.4057v1.2343h-7.4057z"/><path d="m13.4395 10.24v-1.50855h-4.1143v1.50855h1.1886v5.1657h-1.1886v1.5086h4.1143v-1.5086h-1.1429v-5.1657z"/><path d="m17.3712 17.0514c-.64 0-1.1886-.1371-1.6-.3657-.4115-.2285-.7772-.5485-1.0515-.8685l1.1429-1.28c.2286.2742.4571.4571.6857.5942.2286.1372.5029.2286.7771.2286.32 0 .5943-.0914.8229-.32.1829-.2286.2743-.5486.2743-1.0514v-5.25715h1.8286v5.34855c0 .5029-.0458.9143-.1829 1.28s-.32.64-.5943.9143c-.2286.2286-.5486.4571-.9143.5486-.3657.1371-.7314.2285-1.1885.2285z"/></g></g></svg>

<?xml version="1.0" encoding="utf-8"?>
<!-- Uploaded to: SVG Repo, www.svgrepo.com, Generator: SVG Repo Mixer Tools -->
<svg width="800px" height="800px" viewBox="0 0 32 32" fill="none" xmlns="http://www.w3.org/2000/svg">
<g clip-path="url(#clip0_87_8173)">
<path d="M8.09095 24.9598L0.365234 18.8341L4.20523 11.7026L15.2224 15.9998L8.09095 24.9598Z" fill="url(#paint0_linear_87_8173)"/>
<path d="M32.0003 8.54864L31.406 27.0629L19.1088 32.0001L11.7031 27.2458L22.5374 16.0001L17.7831 5.62293L22.0346 0.50293L32.0003 8.54864Z" fill="url(#paint1_linear_87_8173)"/>
<path d="M32.0003 8.54864L22.2632 20.0686L17.7832 5.62293L22.0346 0.50293L32.0003 8.54864Z" fill="url(#paint2_linear_87_8173)"/>
<path d="M15.4057 26.56L2.56 31.2229L4.61714 24L7.31429 15.1314L0 12.6629L4.61714 0L14.6743 1.23429L24.5486 12.5257L15.4057 26.56Z" fill="url(#paint3_linear_87_8173)"/>
<path d="M6.2627 6.17139H26.0113V25.92H6.2627V6.17139Z" fill="#000000"/>
<path d="M8.0918 22.2173H15.4975V23.4516H8.0918V22.2173Z" fill="white"/>
<path d="M13.4395 10.24V8.73145H9.3252V10.24H10.5138V15.4057H9.3252V16.9143H13.4395V15.4057H12.2966V10.24H13.4395Z" fill="white"/>
<path d="M17.3712 17.0514C16.7312 17.0514 16.1826 16.9143 15.7712 16.6857C15.3597 16.4572 14.994 16.1372 14.7197 15.8172L15.8626 14.5372C16.0912 14.8114 16.3197 14.9943 16.5483 15.1314C16.7769 15.2686 17.0512 15.36 17.3254 15.36C17.6454 15.36 17.9197 15.2686 18.1483 15.04C18.3312 14.8114 18.4226 14.4914 18.4226 13.9886V8.73145H20.2512V14.08C20.2512 14.5829 20.2054 14.9943 20.0683 15.36C19.9312 15.7257 19.7483 16 19.474 16.2743C19.2454 16.5029 18.9254 16.7314 18.5597 16.8229C18.194 16.96 17.8283 17.0514 17.3712 17.0514Z" fill="white"/>
</g>
<defs>
<linearGradient id="paint0_linear_87_8173" x1="0.360663" y1="18.3262" x2="15.2301" y2="18.3262" gradientUnits="userSpaceOnUse">
<stop offset="0.258" stop-color="#F97A12"/>
<stop offset="0.459" stop-color="#B07B58"/>
<stop offset="0.724" stop-color="#577BAE"/>
<stop offset="0.91" stop-color="#1E7CE5"/>
<stop offset="1" stop-color="#087CFA"/>
</linearGradient>
<linearGradient id="paint1_linear_87_8173" x1="11.7795" y1="11.3738" x2="36.3084" y2="24.9464" gradientUnits="userSpaceOnUse">
<stop stop-color="#F97A12"/>
<stop offset="0.072" stop-color="#CB7A3E"/>
<stop offset="0.154" stop-color="#9E7B6A"/>
<stop offset="0.242" stop-color="#757B91"/>
<stop offset="0.334" stop-color="#537BB1"/>
<stop offset="0.432" stop-color="#387CCC"/>
<stop offset="0.538" stop-color="#237CE0"/>
<stop offset="0.655" stop-color="#147CEF"/>
<stop offset="0.792" stop-color="#0B7CF7"/>
<stop offset="1" stop-color="#087CFA"/>
</linearGradient>
<linearGradient id="paint2_linear_87_8173" x1="28.9046" y1="19.6184" x2="22.0758" y2="-0.785756" gradientUnits="userSpaceOnUse">
<stop stop-color="#FE315D"/>
<stop offset="0.078" stop-color="#CB417E"/>
<stop offset="0.16" stop-color="#9E4E9B"/>
<stop offset="0.247" stop-color="#755BB4"/>
<stop offset="0.339" stop-color="#5365CA"/>
<stop offset="0.436" stop-color="#386DDB"/>
<stop offset="0.541" stop-color="#2374E9"/>
<stop offset="0.658" stop-color="#1478F3"/>
<stop offset="0.794" stop-color="#0B7BF8"/>
<stop offset="1" stop-color="#087CFA"/>
</linearGradient>
<linearGradient id="paint3_linear_87_8173" x1="4.90057" y1="7.53051" x2="25.3824" y2="41.408" gradientUnits="userSpaceOnUse">
<stop stop-color="#FE315D"/>
<stop offset="0.04" stop-color="#F63462"/>
<stop offset="0.104" stop-color="#DF3A71"/>
<stop offset="0.167" stop-color="#C24383"/>
<stop offset="0.291" stop-color="#AD4A91"/>
<stop offset="0.55" stop-color="#755BB4"/>
<stop offset="0.917" stop-color="#1D76ED"/>
<stop offset="1" stop-color="#087CFA"/>
</linearGradient>
<clipPath id="clip0_87_8173">
<rect width="32" height="32" fill="white"/>
</clipPath>
</defs>
</svg>
